markup/src/img/icon-02.svg

<svg width="34" height="34" viewBox="0 0 34 34" fill="none" xmlns="http://www.w3.org/2000/svg">
<path d="M10.3644 3.96856H8.04895M8.04895 3.96856V5.21756C8.04895 5.905 7.48557 6.46838 6.7982 6.46838H5.9957C5.30826 6.46838 4.7467 5.905 4.7467 5.21756V3.96856M8.04895 3.96856H4.7467M4.7467 3.96856H2.79432C2.10695 3.96856 1.54364 3.40519 1.54364 2.71775V1.78231C1.54364 1.6105 1.68533 1.46875 1.85895 1.46875H32.1411C32.3129 1.46875 32.4547 1.6105 32.4547 1.78231V2.71775C32.4547 3.40519 31.8931 3.96856 31.2057 3.96856H29.2534M29.2534 3.96856V5.21756C29.2534 5.905 28.69 6.46838 28.0026 6.46838H27.2001C26.5127 6.46838 25.9493 5.905 25.9493 5.21756V3.96856M29.2534 3.96856H25.9493M25.9493 3.96856H18.6503M18.6503 3.96856V5.21756C18.6503 5.905 18.0887 6.46838 17.4013 6.46838H16.5988C15.9114 6.46838 15.348 5.905 15.348 5.21756V3.96856M18.6503 3.96856H15.348M15.348 3.96856H12.5294M6.39781 8.41543V9.45362M6.39781 11.5388V12.5788M4.15852 7.81481L3.40377 8.52881M8.63713 7.81481L9.39006 8.52881M27.6022 8.41543V9.45362M27.6022 11.5388V12.5788M25.3629 7.81481L24.6082 8.52881M29.8398 7.81481L30.5945 8.52881M16.9992 8.41543V9.45362M16.9992 11.5388V12.5788M14.7598 7.81481L14.0069 8.52881M19.2384 7.81481L19.9932 8.52881M15.9379 29.406H2.37625C1.16625 29.406 1.16625 24.192 2.37625 24.192H16.9991M16.9991 24.192H31.6238C32.8321 24.192 32.8321 29.406 31.6238 29.406H18.0019M16.9991 24.192C18.2569 24.192 19.2845 24.8227 19.2845 25.597C19.2845 26.3694 18.257 27.0001 16.9992 27.0001C15.7413 27.0001 14.7155 26.3694 14.7155 25.597C14.7155 24.8227 15.7413 24.192 16.9991 24.192ZM6.42085 19.692C6.42085 18.4962 7.38816 17.419 8.57335 17.3003L10.3733 17.1196C10.5789 17.0983 10.7472 17.2507 10.7472 17.4597V19.2562C10.7472 20.4521 9.77804 21.5275 8.5946 21.6479L6.42085 21.8659M8.42808 19.646L6.52889 21.7454M6.42085 19.4546L4.24529 19.235C3.06185 19.1162 2.09279 18.0391 2.09279 16.8432V15.0485C2.09279 14.8395 2.26291 14.6871 2.46841 14.7065L4.26835 14.889C5.45179 15.0078 6.42085 16.0849 6.42085 17.2808L6.42085 25.597M4.41184 17.233L6.31103 19.3341M16.9992 19.692C16.9992 18.4962 17.9682 17.419 19.1517 17.3003L20.9516 17.1196C21.1571 17.0983 21.3272 17.2507 21.3272 17.4597V19.2562C21.3272 20.4521 20.3581 21.5275 19.1747 21.6479L16.9992 21.8659M19.0082 19.646L17.109 21.7454M16.9992 19.4546L14.8254 19.235C13.642 19.1162 12.6728 18.0391 12.6728 16.8432V15.0485C12.6728 14.8395 12.8412 14.6871 13.0467 14.7065L14.8467 14.889C16.0301 15.0078 16.9992 16.0849 16.9992 17.2808V25.597M14.9919 17.233L16.8911 19.3341M27.5792 19.692C27.5792 18.4962 28.5465 17.419 29.7317 17.3003L31.5316 17.1196C31.7371 17.0983 31.9055 17.2507 31.9055 17.4597V19.2562C31.9055 20.4521 30.9364 21.5275 29.753 21.6479L27.5792 21.8659M29.5864 19.646L27.6872 21.7454M27.5792 19.4546L25.4036 19.235C24.2202 19.1162 23.2511 18.0391 23.2511 16.8432V15.0485C23.2511 14.8395 23.4195 14.6871 23.6268 14.7065L25.4267 14.889C26.6101 15.0078 27.5792 16.0849 27.5792 17.2808V25.597M25.5702 17.233L27.4694 19.3341M6.42085 27.0001C7.67866 27.0001 8.70447 26.3694 8.70447 25.597C8.70447 24.8227 7.67866 24.1921 6.42085 24.1921C5.16122 24.1921 4.13547 24.8227 4.13547 25.597C4.13547 26.3694 5.16122 27.0001 6.42085 27.0001ZM27.5792 27.0001C28.837 27.0001 29.8628 26.3694 29.8628 25.597C29.8628 24.8227 28.837 24.1921 27.5792 24.1921C26.3196 24.1921 25.2938 24.8227 25.2938 25.597C25.2938 26.3694 26.3196 27.0001 27.5792 27.0001ZM29.528 29.406H25.6305V32.2265C25.6305 32.393 25.7668 32.5312 25.9351 32.5312H29.2233C29.3898 32.5312 29.528 32.393 29.528 32.2265V29.406ZM4.47209 29.406H8.36959V32.2265C8.36959 32.393 8.2314 32.5312 8.0649 32.5312H4.77678C4.60853 32.5312 4.47209 32.393 4.47209 32.2265V29.406Z" stroke="#40AC6C" stroke-miterlimit="10" stroke-linecap="round" stroke-linejoin="round"/>
</svg>

<svg width="34" height="34" fill="none" xmlns="http://www.w3.org/2000/svg"><path d="M10.364 3.969H8.05m0 0v1.249c0 .687-.563 1.25-1.25 1.25h-.803a1.254 1.254 0 0 1-1.25-1.25v-1.25m3.303 0H4.747m0 0H2.794c-.687 0-1.25-.563-1.25-1.25v-.936c0-.171.141-.313.315-.313h30.282c.172 0 .314.141.314.313v.936c0 .687-.562 1.25-1.25 1.25h-1.952m0 0v1.25c0 .687-.563 1.25-1.25 1.25H27.2c-.687 0-1.25-.563-1.25-1.25v-1.25m3.303 0H25.95m0 0h-7.3m0 0v1.25c0 .687-.561 1.25-1.249 1.25H16.6a1.255 1.255 0 0 1-1.251-1.25v-1.25m3.302 0h-3.302m0 0H12.53M6.398 8.416v1.039m0 2.085v1.04m-2.24-4.764l-.754.714m5.233-.714l.753.714m18.212-.114v1.039m0 2.085v1.04m-2.24-4.764l-.754.714m5.232-.714l.755.714m-13.596-.114v1.039m0 2.085v1.04m-2.24-4.764l-.752.714m5.231-.714l.755.714m-4.055 20.877H2.376c-1.21 0-1.21-5.214 0-5.214H17m0 0h14.625c1.208 0 1.208 5.214 0 5.214H18.002m-1.003-5.214c1.258 0 2.286.63 2.286 1.405 0 .772-1.028 1.403-2.286 1.403s-2.283-.63-2.283-1.403c0-.774 1.025-1.405 2.283-1.405zm-10.578-4.5c0-1.196.967-2.273 2.152-2.392l1.8-.18a.334.334 0 0 1 .374.34v1.796c0 1.196-.969 2.271-2.152 2.392l-2.174.218m2.007-2.22l-1.9 2.1m-.107-2.291l-2.176-.22c-1.183-.119-2.152-1.196-2.152-2.392V15.05c0-.21.17-.362.375-.342l1.8.182c1.184.119 2.153 1.196 2.153 2.392v8.316m-2.01-8.364l1.9 2.101m10.688.358c0-1.196.97-2.273 2.153-2.392l1.8-.18a.335.335 0 0 1 .375.34v1.796c0 1.196-.969 2.271-2.152 2.392l-2.176.218m2.01-2.22l-1.9 2.1m-.11-2.291l-2.174-.22c-1.183-.119-2.152-1.196-2.152-2.392V15.05c0-.21.168-.362.374-.342l1.8.182c1.183.119 2.152 1.196 2.152 2.392v8.316m-2.007-8.364l1.9 2.101m10.687.358c0-1.196.968-2.273 2.153-2.392l1.8-.18a.334.334 0 0 1 .373.34v1.796c0 1.196-.969 2.271-2.152 2.392l-2.174.218m2.007-2.22l-1.899 2.1m-.108-2.291l-2.175-.22c-1.184-.119-2.153-1.196-2.153-2.392V15.05c0-.21.168-.362.376-.342l1.8.182c1.183.119 2.152 1.196 2.152 2.392v8.316m-2.009-8.364l1.9 2.101M6.42 27c1.259 0 2.284-.63 2.284-1.403 0-.774-1.025-1.405-2.283-1.405-1.26 0-2.286.63-2.286 1.405 0 .772 1.026 1.403 2.286 1.403zm21.16 0c1.257 0 2.283-.63 2.283-1.403 0-.774-1.026-1.405-2.284-1.405-1.26 0-2.285.63-2.285 1.405 0 .772 1.026 1.403 2.285 1.403zm1.948 2.406h-3.897v2.82c0 .167.136.305.304.305h3.288a.307.307 0 0 0 .305-.304v-2.821zm-25.056 0H8.37v2.82a.307.307 0 0 1-.305.305H4.777a.306.306 0 0 1-.305-.304v-2.821z" stroke="#40AC6C" stroke-miterlimit="10" stroke-linecap="round" stroke-linejoin="round"/></svg>
